v3/src/assets/plugins/plugin-nasa-earth-observatory-icon.svg

<?xml version="1.0" encoding="UTF-8"?>
<svg width="24px" height="24px" viewBox="0 0 24 24" version="1.1" xmlns="http://www.w3.org/2000/svg" xmlns:xlink="http://www.w3.org/1999/xlink">
    <title>A5FFCFDE-EAE5-4F90-A0BF-C741E82D68C8</title>
    <g id="Plugin-NASA-Earth-Observatory-ICON" stroke="none" fill="none">
        <rect id="Rectangle" fill-rule="nonzero" x="0" y="0" width="24" height="24"></rect>
        <path d="M12,2 C12.3293159,2 12.6539091,2.01487651 12.9737797,2.04462953 C12.7255332,2.71835315 12.6,3.43979412 12.6,4.2 C12.6,5.14481917 12.7825969,6.05780388 13.1456112,6.92345335 C13.4308728,7.60369256 13.7927317,8.23919632 14.2294993,8.82684956 L14.7699408,9.52381742 C15.0662962,9.91357815 15.3590514,10.3241284 15.6358994,10.7394004 C15.9304209,11.1811826 16.1585249,11.6594653 16.3220126,12.1796532 C16.4949492,12.6994029 16.7905499,13.1216896 17.1906099,13.4417376 C17.6542078,13.8126159 18.2163601,14 18.8,14 C19.3836399,14 19.9457922,13.8126159 20.4093901,13.4417376 C20.8094501,13.1216896 21.1050508,12.6994029 21.2673666,12.2124555 C21.4066534,11.7700633 21.5804973,11.375484 21.7952584,11.0091554 L21.9309931,10.7934244 C21.9769977,11.1883139 22,11.5905058 22,12 C22,13.3833333 21.7375,14.6833333 21.2125,15.9 C20.6875,17.1166667 19.975,18.175 19.075,19.075 C18.175,19.975 17.1166667,20.6875 15.9,21.2125 C14.6833333,21.7375 13.3833333,22 12,22 C10.6166667,22 9.31666667,21.7375 8.1,21.2125 C6.88333333,20.6875 5.825,19.975 4.925,19.075 C4.025,18.175 3.3125,17.1166667 2.7875,15.9 C2.2625,14.6833333 2,13.3833333 2,12 C2,10.6166667 2.2625,9.31666667 2.7875,8.1 C3.3125,6.88333333 4.025,5.825 4.925,4.925 C5.825,4.025 6.88333333,3.3125 8.1,2.7875 C9.31666667,2.2625 10.6166667,2 12,2 Z" id="Path" fill="#006C8E" fill-rule="evenodd"></path>
        <path d="M4.2,10.2 L9,15 L9,16 C9,16.55 9.19583333,17.0208333 9.5875,17.4125 C9.97916667,17.8041667 10.45,18 11,18 L11,19.95 C8.98333333,19.7 7.3125,18.8166667 5.9875,17.3 C4.6625,15.7833333 4,14.0166667 4,12 C4,11.7 4.02083333,11.4 4.0625,11.1 C4.10416667,10.8 4.15,10.5 4.2,10.2 Z M13.1751706,6.993142 C13.4493183,7.63219073 13.7916297,8.23130443 14.2006859,8.78786511 L14.7699408,9.52381742 C15.0662962,9.91357815 15.3590514,10.3241284 15.6358994,10.7394004 C15.9304209,11.1811826 16.1585249,11.6594653 16.3220126,12.1796532 C16.4949492,12.6994029 16.7905499,13.1216896 17.1906099,13.4417376 C17.6542078,13.8126159 18.2163601,14 18.8,14 C19.1452466,14 19.4829743,13.9344305 19.7972308,13.8040968 C19.7118999,14.1695611 19.6004832,14.5313108 19.4625,14.8875 C19.1041667,15.8125 18.5833333,16.65 17.9,17.4 C17.7666667,16.9833333 17.525,16.6458333 17.175,16.3875 C16.825,16.1291667 16.4333333,16 16,16 L15,16 L15,13 C15,12.7166667 14.9041667,12.4791667 14.7125,12.2875 C14.5208333,12.0958333 14.2833333,12 14,12 L8,12 L8,10 L10,10 C10.2833333,10 10.5208333,9.90416667 10.7125,9.7125 C10.9041667,9.52083333 11,9.28333333 11,9 L11,7 L13,7 L13.1751706,6.993142 Z" id="Shape" fill="#D3F4FF" fill-rule="evenodd"></path>
        <path d="M18.8,0 C19.96,0 20.95,0.41 21.77,1.23 C22.59,2.05 23,3.04 23,4.2 C23,4.88 22.865,5.525 22.595,6.135 C22.325,6.745 21.99,7.32 21.59,7.86 C21.13,8.44 20.7,9.03 20.3,9.63 C19.9,10.23 19.59,10.88 19.37,11.58 C19.33,11.7 19.26,11.8 19.16,11.88 C19.06,11.96 18.94,12 18.8,12 C18.66,12 18.54,11.96 18.44,11.88 C18.34,11.8 18.27,11.7 18.23,11.58 C18.01,10.88 17.7,10.23 17.3,9.63 C17,9.18 16.683125,8.735625 16.349375,8.296875 L16.01,7.86 C15.59,7.34 15.25,6.77 14.99,6.15 C14.73,5.53 14.6,4.88 14.6,4.2 C14.6,3.04 15.01,2.05 15.83,1.23 C16.65,0.41 17.64,0 18.8,0 Z M18.8,2 C18.184,2 17.6633333,2.21266667 17.238,2.638 C16.8126667,3.06333333 16.6,3.584 16.6,4.2 C16.6,4.816 16.8126667,5.33666667 17.238,5.762 C17.6633333,6.18733333 18.184,6.4 18.8,6.4 C19.416,6.4 19.9366667,6.18733333 20.362,5.762 C20.7873333,5.33666667 21,4.816 21,4.2 C21,3.584 20.7873333,3.06333333 20.362,2.638 C19.9366667,2.21266667 19.416,2 18.8,2 Z" id="Shape" fill="#006C8E" fill-rule="evenodd"></path>
    </g>
</svg>

<svg viewBox="0 0 24 24" xmlns="http://www.w3.org/2000/svg">
    <g fill="none">
        <path d="M0 0h24v24H0z"/>
        <path d="M12 2c.33 0 .654.015.974.045A6.197 6.197 0 0 0 12.6 4.2c0 .945.183 1.858.546 2.723.285.68.647 1.316 1.083 1.904l.54.697c.297.39.59.8.867 1.215.294.442.523.92.686 1.44.173.52.469.943.869 1.263.463.37 1.025.558 1.609.558.584 0 1.146-.187 1.61-.558.4-.32.695-.743.857-1.23a5.79 5.79 0 0 1 .528-1.203l.136-.216c.046.395.069.798.069 1.207a9.738 9.738 0 0 1-.788 3.9 10.099 10.099 0 0 1-2.137 3.175c-.9.9-1.958 1.613-3.175 2.137A9.738 9.738 0 0 1 12 22a9.738 9.738 0 0 1-3.9-.788 10.099 10.099 0 0 1-3.175-2.137c-.9-.9-1.612-1.958-2.137-3.175A9.738 9.738 0 0 1 2 12c0-1.383.263-2.683.788-3.9a10.099 10.099 0 0 1 2.137-3.175c.9-.9 1.958-1.612 3.175-2.137A9.738 9.738 0 0 1 12 2z" fill="#006C8E" fill-rule="evenodd"/>
        <path d="M4.2 10.2 9 15v1c0 .55.196 1.02.588 1.413.391.391.862.587 1.412.587v1.95c-2.017-.25-3.688-1.133-5.013-2.65C4.662 15.783 4 14.017 4 12c0-.3.02-.6.063-.9.041-.3.087-.6.137-.9zm8.975-3.207a9.04 9.04 0 0 0 1.026 1.795l.569.736c.296.39.59.8.866 1.215.294.442.523.92.686 1.44.173.52.469.943.869 1.263.463.37 1.025.558 1.609.558.345 0 .683-.066.997-.196A7.99 7.99 0 0 1 17.9 17.4a1.977 1.977 0 0 0-.725-1.012A1.93 1.93 0 0 0 16 16h-1v-3a.968.968 0 0 0-.287-.713A.968.968 0 0 0 14 12H8v-2h2c.283 0 .52-.096.713-.287A.968.968 0 0 0 11 9V7h2l.175-.007z" fill="#D3F4FF" fill-rule="evenodd"/>
        <path d="M18.8 0c1.16 0 2.15.41 2.97 1.23.82.82 1.23 1.81 1.23 2.97 0 .68-.135 1.325-.405 1.935A9.03 9.03 0 0 1 21.59 7.86c-.46.58-.89 1.17-1.29 1.77-.4.6-.71 1.25-.93 1.95-.04.12-.11.22-.21.3-.1.08-.22.12-.36.12-.14 0-.26-.04-.36-.12a.634.634 0 0 1-.21-.3c-.22-.7-.53-1.35-.93-1.95-.3-.45-.617-.894-.95-1.333l-.34-.437a7.04 7.04 0 0 1-1.02-1.71c-.26-.62-.39-1.27-.39-1.95 0-1.16.41-2.15 1.23-2.97C16.65.41 17.64 0 18.8 0zm0 2c-.616 0-1.137.213-1.562.638A2.124 2.124 0 0 0 16.6 4.2c0 .616.213 1.137.638 1.562.425.425.946.638 1.562.638.616 0 1.137-.213 1.562-.638.425-.425.638-.946.638-1.562 0-.616-.213-1.137-.638-1.562A2.124 2.124 0 0 0 18.8 2z" fill="#006C8E" fill-rule="evenodd"/>
    </g>
</svg>
